!!!!SEGMENT: pl-wtm--r-66-n--001-010_noskowski-zygmunt--piesni-ludowe-op-51-wysoko-daleko.krn
!!!cenid: 18xx:2288
!!!COM: Noskowski, Zygmunt
!!!COM-rismID: pe106604
!!!CDT: 1846/05/02-1909/07/23
!!!CNT: Polish
!!!GTL: Pieśni ludowe op. 51
!!!OTL: Wysoko, daleko
!!!OMV: 010
!!!PDT:
!!!AGN: Secular; Song
!!!YEC: Copyright 2022 Narodowy Instytut Fryderyka Chopina (https://polishscores.org)
!!!YEM: License CC-BY-4.0 (https://creativecommons.org/licenses/by/4.0)
!!!SMS-siglum: PL-Wtm
!!!SMS-shelfmark: R 66/N
!!!SMS-shelfwork: 001-010 G
!!!SMS-variant:
!!!SMS-altvar:
!!!NIFC-rismSourceID: 1001096735
!!!NIFC-rismChildID: 1001096735
!!!NIFC-islandoraID:
!!!URL-pdf-islandora:
!!!URL-scan:
!!!IIIF:
!!!ONB-nifc: UWAGA: na podstawie partytur z folderu pl-wtm-r66n
!!!AIN: 1 bass 1 tenor
!!!key:
**kern	**dynam	**kern	**text	**text	**dynam
*part2	*	*part1	*	*	*
*staff2	*	*staff1	*	*	*
*Ibass	*	*Itenor	*	*	*
*I"Basy	*	*I"Tenory	*	*	*
*clefF4	*	*clefG2	*	*	*
*	*	*ITrd7c12	*	*	*
*k[f#c#]	*	*k[f#c#]	*	*	*
*b:	*	*b:	*	*	*
*b	*	*b	*	*	*
*M3/4	*	*M3/4	*	*	*
=1	=1	=1	=1	=1	=1
*^	*	*^	*	*	*
!LO:TX:t=P:problem=4\, 8\right&colon; global	!	!	!LO:TX:t=P:problem=głos tenorów zapisany w kluczu wiolinowym	!LO:TX:t=P:problem=4\, 8\right&colon; global	!	!	!
!	!	!	!LO:TX:a:t=10. Wysoko, daleko.	!	!	!	!
!	!	!	!LO:TX:a:t=Andante	!	!	!	!LO:DY:b
8F#/	8BB\	p	8f#/	8d\	1. Wy-	2. Dla-	p
8G/	8BB\	.	8e/	8c#\	-so-	-cze-	.
4F#/	4BB\	.	4d/	4B\	-ko,	-go	.
4E/	4BB\	.	4f#/	4A#X\	da-	dzie-	.
=2	=2	=2	=2	=2	=2	=2	=2
(<8F#/L	4BB\	.	(8d/L	(8B\L	-le-	-wczy-	.
8E/J)	.	.	8c#/J)	8G\J)	.	.	.
2D/	2BB\	.	2B/	2F#\	-ko,	-no,	.
=3	=3	=3	=3	=3	=3	=3	=3
8E/	8BB\	.	8A#X/	8G\	Li-	Pod	.
8E/	8BB\	.	8B/	8G\	-stek	ja-	.
4D/	4BB\	.	(<8d/L	4F#\	na	wo-	.
.	.	.	8c#/J)	.	.	.	.
4D/	(8BB\L	.	4B/	4F#\	ja-	-rem	.
.	8AAn\J)	.	.	.	.	.	.
=4	=4	=4	=4	=4	=4	=4	=4
!	!	!	!	!	!	!	!LO:DY:a
(<8G/L	4GG\	<	(8d/L	(8B\L	-wo-	sto-	<
8B/J)	.	.	8e#X/J)	8c#\J)	.	.	.
2A#X/	2FF#\	[	2f#/	2c#\	-rze,	-isz?	.
!!LO:LB:g=original
=5	=5	=5	=5	=5	=5	=5	=5
!	!	!	!	!	!	!	!LO:DY:b
8B/	8BB\	mf	8f#/	8d\	Kto	Czy	[ mf
8G/	8BB\	.	8en/	8c#\	się	cię	.
4F#/	4BB\	.	4d/	4Bn\	w kim	słon-	.
(8E/L	(8C#\L	.	4f#/	(>8A#X\L	za-	-ko	.
8F#/J)	8D\J)	.	.	8B\J)	.	.	.
=6	=6	=6	=6	=6	=6	=6	=6
4G/	4E\	.	(8d/L	4B\	-ko-	pa-	.
.	.	.	8c#/J)	.	.	.	.
(8G/L	(8D\L	.	2B/	2G\	-cha,	-li?	.
8F#/J	8C#\J	.	.	.	.	.	.
4E/)	4BB\)	.	.	.	.	.	.
=7	=7	=7	=7	=7	=7	=7	=7
8E/	8C#\	.	8A#X/	8F#\	Do-	Czy	.
8D/	8BB\	.	8B/	8F#\	-po-	się	.
4F#/	4AA#X\	.	4c#/	4F#\	-móż	wia-	.
4F#/	4FF#\	.	4f#/	4A#\	mu	-tru	.
=8	=8	=8	=8	=8	=8	=8	=8
(8F#/L	(8BB\L	.	(8d/L	(8B\L	Bo-	bo-	.
8E/J)	8C#\J)	.	8c#/J)	8A#X\J)	.	.	.
(4F#/	(4D\	.	2B/	2B\	-że.	-isz?	.
4G/)	4E\)	.	.	.	.	.	.
!!LO:LB:g=original
=9	=9	=9	=9	=9	=9	=9	=9
!	!	!	!	!	!	!	!LO:DY:b
8F#/	8F#\	p	8A#X/	8A#\	Do-	Czy	p
8F#/	8F#\	.	8B/	8G#X\	-po-	się	.
4F#/	(8F#\L	.	4c#/	4A#\	-móż	wia-	.
.	8E\J)	.	.	.	.	.	.
4F#/	(8D\L	.	4f#/	4A#\	mu	-tru	.
.	8C#\J)	.	.	.	.	.	.
=10	=10	=10	=10	=10	=10	=10	=10
(<8F#/L	4BB\	.	(8d/L	(8B\L	Bo-	bo-	.
8E/J)	.	.	8c#/J)	8A#X\J)	.	.	.
2D/	2BB\	.	2B/	2F#\	-że.	-isz?	.
=11	=11	=11	=11	=11	=11	=11	=11
!	!	!	!	!	!	!	!LO:DY:a
8F#/	8F#\	mf	8F#/	8F#\	Wy-	Ni	mf
8F#/	8E\	.	8A#X/	8F#\	-so-	mię	.
4F#/	4D\	.	4B/	4G#X\	-ko	słon-	.
4E/	4C#\	.	4c#/	4A#X\	da-	-ko	.
=12	=12	=12	=12	=12	=12	=12	=12
(8F#/L	(8BB\L	.	(8d/L	(8B\L	-le-	pa-	.
8E/J)	8C#\J)	.	8c#/J)	8A#X\J)	.	.	.
2D/	2D\	.	2B/	2B\	-ko,	-li,	.
=13	=13	=13	=13	=13	=13	=13	=13
8D/	8GG\	.	8A#X/	8Gn\	Lis-	Ni	.
8D/	8GG\	.	8B/	8G\	-tek	się	.
4D/	4GG\	.	(8d/L	(8B\L	na	wia-	.
.	.	.	8c#/J)	8A#X\J)	.	.	.
4G/	4G\	.	4B/	4B\	ka-	-tru	.
!!LO:PB:g=original
=14	=14	=14	=14	=14	=14	=14	=14
!	!	!	!	!	!	!	!LO:DY:a
(8G/L	4G\	<	(8d/L	(8B\L	-li-	bo-	<
8B/J)	.	.	8e#X/J)	8c#\J)	.	.	.
2A#X/	(>4F#\	[	2f#/	2c#\	-nie,	-ję,	[
.	4E\)	.	.	.	.	.	.
=15	=15	=15	=15	=15	=15	=15	=15
8An/	8D\	f	8f#/	8d\	Kto	Nie	f
8G/	8D\	.	8en/	8An\	się	wi-	.
4F#/	4D\	.	4d/	4A\	szcze-	-dać	.
4D/	4FF#\	.	4f#/	4A\	-rze	Ja-	.
=16	=16	=16	=16	=16	=16	=16	=16
4D/	4GG\	.	(8d/L	(8B\L	ko-	-sień-	.
.	.	.	8c#/J)	8A\J)	.	.	.
(4D/	2GG\	.	2B/	(>8G\L	-cha,	-ka,	.
.	.	.	.	8F#\J	.	.	.
4C#/)	.	.	.	4E#X\)	.	.	.
=17	=17	=17	=17	=17	=17	=17	=17
8C#/	8FF#\	.	8A#X/	8En\	Nig-	Smę-	.
8D/	8FF#\	.	8B/	8F#\	dy	-tne	.
4E/	4FF#\	.	4c#/	4G\	go	ser-	.
4C#/	4AA#X\	.	4f#/	4F#\	nie	-ce	.
!!LO:LB:g=original
=18	=18	=18	=18	=18	=18	=18	=18
(8D/L	(8BB\L	.	(8d/L	(8F#\L	mi-	mo-	.
8E/J)	8C#\J)	.	8c#/J)	8A#X\J)	.	.	.
(4F#/	(4D\	.	2B/	(4B\	-nie,	-je.	.
4E#X/)	4C#\)	.	.	4G#X\)	.	.	.
=19	=19	=19	=19	=19	=19	=19	=19
!	!	!	!	!	!	!	!LO:DY:b
8F#/	8F#\	.	8A#X/	8A#\	Nig-	Smę-	p
8F#/	8D\	.	8B/	8G#X\	-dy	-tne	.
4F#/	(8C#\L	.	4c#/	4A#X\	go	ser-	.
.	8En\J)	.	.	.	.	.	.
(8G#X/L	(8D\L	.	4f#/	(8B\L	nie	-ce	.
8A#X/J)	8C#\J)	.	.	8c#\J)	.	.	.
=20	=20	=20	=20	=20	=20	=20	=20
!	!	!	!	!	!	!	!LO:DY:a
(8F#/L	(8BB\L	.	(8d/L	(8F#\L	mi-	mo-	>
8E/J)	8FF#\J)	.	8c#/J)	8A#X\J)	.	.	.
(4D/	[2BB\	>	[2B/	(4F#\	-nie.	-je.	.
4C#/	.	.	.	4E\	.	.	.
=21	=21	=21	=21	=21	=21	=21	=21
2.D;/)	2.BB;\]	]	2.B;/]	2.F#;\)	.	.	]
*v	*v	*	*	*	*	*	*
*	*	*v	*v	*	*	*
=:|!	=:|!	=:|!	=:|!	=:|!	=:|!
*-	*-	*-	*-	*-	*-
!!!system-decoration: {(s1,s2)}
!!!RDF**kern: > = above
!!!RDF**kern: < = below
!!!ENC: Marcin Jachim
!!!END: 2021-06-02
!!!EED: Marcin Jachim
!!!EEV: 2021-06-02
